X:23
T:The broken pledge
R:Reel
O:Ireland
S:O'Neill's 1178
B:O'Neill's 1178
Z:Transcription, arrangement, chords:Mike Long
M:C|
L:1/8
K:C
d|\
"Dm"dcAG AD~D2|"C"cAGF "Am"ECCE|"Dm"DEFG Addc|"Am"(3(A_BA) GB Adfe|\
"Dm"dcAG A2dB|
"C"(3(cBA) GF "Am"ECCE|"Dm"DEFG Addc|"Am"(3(A_BA) GE "Dm"EDD:|\
|:d|\
"Dm"{e}dcAG A2de|"F"fefd "Am"ecAB|
"C"{d}cAGE GAcd|"Am"(3(efg) df "C"ecAc|\
"Dm"dcAG A2de|"F"fefd "Am"ecAG|"F"~FEFG "Am"Addc|"Am"(3(A_BA) GE "Dm"EDD:|
